images/settings.svg

<svg width="36" height="36" viewBox="0 0 36 36" fill="none" xmlns="http://www.w3.org/2000/svg">
<g id="settings_24px">
<path id="icon/action/settings_24px" fill-rule="evenodd" clip-rule="evenodd" d="M29.2533 18C29.2533 18.51 29.2083 18.99 29.1483 19.47L32.3133 21.945C32.5983 22.17 32.6733 22.575 32.4933 22.905L29.4933 28.095C29.3583 28.335 29.1033 28.47 28.8483 28.47C28.7583 28.47 28.6683 28.455 28.5783 28.425L24.8433 26.925C24.0633 27.51 23.2233 28.02 22.3083 28.395L21.7383 32.37C21.6933 32.73 21.3783 33 21.0033 33H15.0033C14.6283 33 14.3133 32.73 14.2683 32.37L13.6983 28.395C12.7833 28.02 11.9433 27.525 11.1633 26.925L7.42831 28.425C7.35331 28.455 7.26331 28.47 7.17331 28.47C6.90331 28.47 6.64831 28.335 6.51331 28.095L3.51331 22.905C3.33331 22.575 3.40831 22.17 3.69331 21.945L6.85831 19.47C6.79831 18.99 6.75331 18.495 6.75331 18C6.75331 17.505 6.79831 17.01 6.85831 16.53L3.69331 14.055C3.40831 13.83 3.31831 13.425 3.51331 13.095L6.51331 7.905C6.64831 7.665 6.90331 7.53 7.15831 7.53C7.24831 7.53 7.33831 7.545 7.42831 7.575L11.1633 9.075C11.9433 8.49 12.7833 7.98 13.6983 7.605L14.2683 3.63C14.3133 3.27 14.6283 3 15.0033 3H21.0033C21.3783 3 21.6933 3.27 21.7383 3.63L22.3083 7.605C23.2233 7.98 24.0633 8.475 24.8433 9.075L28.5783 7.575C28.6533 7.545 28.7433 7.53 28.8333 7.53C29.1033 7.53 29.3583 7.665 29.4933 7.905L32.4933 13.095C32.6733 13.425 32.5983 13.83 32.3133 14.055L29.1483 16.53C29.2083 17.01 29.2533 17.49 29.2533 18ZM26.2533 18C26.2533 17.685 26.2383 17.37 26.1783 16.905L25.9683 15.21L27.3033 14.16L28.9083 12.885L27.8583 11.07L25.9533 11.835L24.3633 12.48L22.9983 11.43C22.3983 10.98 21.7983 10.635 21.1533 10.365L19.5633 9.72L19.3233 8.025L19.0383 6H16.9533L16.6533 8.025L16.4133 9.72L14.8233 10.365C14.2083 10.62 13.5933 10.98 12.9483 11.46L11.5983 12.48L10.0383 11.85L8.13332 11.085L7.08332 12.9L8.70332 14.16L10.0383 15.21L9.82832 16.905C9.78332 17.355 9.75332 17.7 9.75332 18C9.75332 18.3 9.78332 18.645 9.82832 19.11L10.0383 20.805L8.70332 21.855L7.08332 23.115L8.13332 24.93L10.0383 24.165L11.6283 23.52L12.9933 24.57C13.5933 25.02 14.1933 25.365 14.8383 25.635L16.4283 26.28L16.6683 27.975L16.9533 30H19.0533L19.3533 27.975L19.5933 26.28L21.1833 25.635C21.7983 25.38 22.4133 25.02 23.0583 24.54L24.4083 23.52L25.9683 24.15L27.8733 24.915L28.9233 23.1L27.3033 21.84L25.9683 20.79L26.1783 19.095C26.2233 18.645 26.2533 18.315 26.2533 18ZM18.0033 12C14.6883 12 12.0033 14.685 12.0033 18C12.0033 21.315 14.6883 24 18.0033 24C21.3183 24 24.0033 21.315 24.0033 18C24.0033 14.685 21.3183 12 18.0033 12ZM15.0033 18C15.0033 19.65 16.3533 21 18.0033 21C19.6533 21 21.0033 19.65 21.0033 18C21.0033 16.35 19.6533 15 18.0033 15C16.3533 15 15.0033 16.35 15.0033 18Z" fill="#333333"/>
</g>
</svg>

<svg width="36" height="36" fill="none" xmlns="http://www.w3.org/2000/svg"><path fill-rule="evenodd" clip-rule="evenodd" d="M29.253 18c0 .51-.045.99-.105 1.47l3.165 2.475c.285.225.36.63.18.96l-3 5.19a.743.743 0 01-.645.375.85.85 0 01-.27-.045l-3.735-1.5c-.78.585-1.62 1.095-2.535 1.47l-.57 3.975a.731.731 0 01-.735.63h-6a.731.731 0 01-.735-.63l-.57-3.975a10.96 10.96 0 01-2.535-1.47l-3.735 1.5a.7.7 0 01-.255.045.75.75 0 01-.66-.375l-3-5.19a.757.757 0 01.18-.96l3.165-2.475c-.06-.48-.105-.975-.105-1.47s.045-.99.105-1.47l-3.165-2.475a.74.74 0 01-.18-.96l3-5.19a.743.743 0 01.645-.375c.09 0 .18.015.27.045l3.735 1.5c.78-.585 1.62-1.095 2.535-1.47l.57-3.975c.045-.36.36-.63.735-.63h6c.375 0 .69.27.735.63l.57 3.975c.915.375 1.755.87 2.535 1.47l3.735-1.5a.7.7 0 01.255-.045.75.75 0 01.66.375l3 5.19c.18.33.105.735-.18.96l-3.165 2.475c.06.48.105.96.105 1.47zm-3 0c0-.315-.015-.63-.075-1.095l-.21-1.695 1.335-1.05 1.605-1.275-1.05-1.815-1.905.765-1.59.645-1.365-1.05a8.51 8.51 0 00-1.845-1.065l-1.59-.645-.24-1.695L19.038 6h-2.085l-.3 2.025-.24 1.695-1.59.645c-.615.255-1.23.615-1.875 1.095l-1.35 1.02-1.56-.63-1.905-.765-1.05 1.815 1.62 1.26 1.335 1.05-.21 1.695c-.045.45-.075.795-.075 1.095 0 .3.03.645.075 1.11l.21 1.695-1.335 1.05-1.62 1.26 1.05 1.815 1.905-.765 1.59-.645 1.365 1.05c.6.45 1.2.795 1.845 1.065l1.59.645.24 1.695.285 2.025h2.1l.3-2.025.24-1.695 1.59-.645c.615-.255 1.23-.615 1.875-1.095l1.35-1.02 1.56.63 1.905.765 1.05-1.815-1.62-1.26-1.335-1.05.21-1.695c.045-.45.075-.78.075-1.095zm-8.25-6c-3.315 0-6 2.685-6 6s2.685 6 6 6 6-2.685 6-6-2.685-6-6-6zm-3 6c0 1.65 1.35 3 3 3s3-1.35 3-3-1.35-3-3-3-3 1.35-3 3z" fill="#333"/></svg>
